X:1
T:The Glorious Tidings
T:Susie E. Hatfield
T:The Glorious Tidings
T:Public Domain
T:Public Domain
T:Public Domain
C:Susie E. Hatfield
Z:Public Domain
%%score ( 1 2 ) 3
L:1/8
M:4/4
K:Ab
V:1 treble 
V:2 treble 
V:3 bass 
V:1
 [CA]>[CA] [EA][EB] [Ac][Ac][_GB][GA] | [FA]>[FA] [EG][DF] [CE]4 | [Ee]>[Fe] [Ge][Ae] [Be]2 E2 | %3
w: 1.~Christ is your Re- deem- er, He des-|cend- ed from the throne,|Shout the glor- ious tid- ings,|
w: 2.~Christ has o- pened wide the door that|all may en- ter in;|Shout the glor- ious tid- ings,|
w: 3.~Have you found the Sav- ior, are you|striv- ing to be true?|Shout the glor- ious tid- ings,|
 [Ae]>[Ge] [Ae][Be] [ce]2 [Ac]2 | [EA]>[EA] [EA][EB] [Ac][Ac][_GB][GA] | [FA][FA][EG][DF] [CE]4 | %6
w: the strains of glad- ness; Lived|a life of po- ver- ty to claim|you for His own: Shout|
w: the strains of glad- ness; On|the cross He shed His blood to ran-|som you from sin; Shout|
w: the strains of glad- ness; Go|and tell to o- thers what His love|has done for you: Shout|
 [Ee]>[Fe] [Ge][Ae] [Be][Gd][Gc][EB] | [EA]8 ||"^Refrain" [FA]>[FA] [FA][FA] [Fd]2 [Fd]2 | %9
w: the glor- ious tid- ings to the world.|||
w: the glor- ious tid- ings to the world.|Sing|with ex- ul- ta- tion, catch|
w: the glor- ious tid- ings to the world.|||
 [EA]>[EA] [EA][EA] [Ec]2 [Ec]2 | [=Dc]>[DB] [DB][Dc] [DB][DA][DG][DF] | (E4 [Ge]4) | %12
w: |||
w: the in- spir- a- tion, Let|the joy- ful ban- ners be un- furled;|Shout *|
w: |||
 [Ae]>[Ge] [Ae][Be] [ce]2 (A_G) | [FB]>[Fc] [FB][Fc] [FB]2 [DF]2 | %14
w: ||
w: glor- ious tid- ings, swell the *|of rap- ture, Shout the glor-|
w: ||
 [DE][DF][DG][DB] [Ae][Gd][Gc][EB] | [EA]8 |] %16
w: ||
w: ious tid- ings to the world. * *||
w: ||
V:2
 x8 | x8 | x6 E2 | x8 | x8 | x8 | x8 | x8 || x8 | x8 | x8 | E4 x4 | x6 c2 | x8 | x8 | x8 |] %16
w: ||swell||||||||||||||
w: ||swell|||||||||the|notes||||
w: ||swell||||||||||||||
V:3
 [A,,A,]>[A,,A,] [A,C][A,D] [A,E][A,E][A,C][A,C] | [D,D]>[D,D] [D,A,][D,A,] [A,,A,]4 | %2
 [E,G,]>[E,A,] [E,B,][E,C] [E,D]2 [G,D]2 | [A,C]>[A,B,] [A,C][A,D] [A,E]2 [A,E]2 | %4
 [A,C]>[A,C] [A,C][A,D] [A,E][A,E][A,C][A,C] | [D,D][D,D][D,A,][D,A,] [A,,A,]4 | %6
 [E,G,]>[E,A,] [E,B,][E,C] [E,D][E,F][E,E][E,D] | [A,,A,C]8 || %8
 [D,D]>[D,D] [D,D][D,D] [D,A,]2 [D,A,]2 | [A,C]>[A,C] [A,C][A,C] [A,,A,]2 [A,,A,]2 | %10
 [B,,A,]>[B,,A,] [B,,A,][B,,F,] [B,,F,][B,,C][B,,B,][B,,A,] | %11
 ([E,G,][F,A,][G,B,][F,A,] [E,G,]2 [F,A,][G,B,]) | [A,C]>[A,B,] [A,C][A,D] [A,E]2 [A,E]2 | %13
 [D,D]>[D,D] [D,D][D,D] [D,D]2 [D,A,]2 | [E,G,][E,A,][E,B,][E,G,] [E,C][E,F][E,E][E,D] | %15
 [A,,A,C]8 |] %16

